icons/svg/amenity/baby_hatch.svg

<?xml version="1.0" encoding="UTF-8" standalone="no"?>
<!-- Created with Inkscape (http://www.inkscape.org/) -->

<svg
   xmlns:dc="http://purl.org/dc/elements/1.1/"
   xmlns:cc="http://creativecommons.org/ns#"
   xmlns:rdf="http://www.w3.org/1999/02/22-rdf-syntax-ns#"
   xmlns:svg="http://www.w3.org/2000/svg"
   xmlns="http://www.w3.org/2000/svg"
   xmlns:xlink="http://www.w3.org/1999/xlink"
   xmlns:sodipodi="http://sodipodi.sourceforge.net/DTD/sodipodi-0.dtd"
   xmlns:inkscape="http://www.inkscape.org/namespaces/inkscape"
   version="1.0"
   width="580"
   height="580"
   id="svg2"
   sodipodi:version="0.32"
   inkscape:version="0.91 r"
   sodipodi:docname="baby_hatch.svg"
   inkscape:output_extension="org.inkscape.output.svg.inkscape">
  <metadata
     id="metadata2975">
    <rdf:RDF>
      <cc:Work
         rdf:about="">
        <dc:format>image/svg+xml</dc:format>
        <dc:type
           rdf:resource="http://purl.org/dc/dcmitype/StillImage" />
        <cc:license
           rdf:resource="http://web.resource.org/cc/PublicDomain" />
        <dc:language>en</dc:language>
        <dc:title></dc:title>
      </cc:Work>
    </rdf:RDF>
  </metadata>
  <sodipodi:namedview
     inkscape:window-height="1004"
     inkscape:window-width="1920"
     inkscape:pageshadow="2"
     inkscape:pageopacity="0.0"
     guidetolerance="10.0"
     gridtolerance="10.0"
     objecttolerance="10.0"
     borderopacity="1.0"
     bordercolor="#666666"
     pagecolor="#ffffff"
     id="base"
     inkscape:zoom="0.65172416"
     inkscape:cx="64.782385"
     inkscape:cy="366.22879"
     inkscape:window-x="1680"
     inkscape:window-y="0"
     inkscape:current-layer="svg2"
     showgrid="false"
     inkscape:window-maximized="1" />
  <defs
     id="defs4">
    <inkscape:perspective
       sodipodi:type="inkscape:persp3d"
       inkscape:vp_x="0 : 290 : 1"
       inkscape:vp_y="0 : 1000 : 0"
       inkscape:vp_z="580 : 290 : 1"
       inkscape:persp3d-origin="290 : 193.33333 : 1"
       id="perspective2441" />
    <inkscape:perspective
       id="perspective3452"
       inkscape:persp3d-origin="30 : 20 : 1"
       inkscape:vp_z="60 : 30 : 1"
       inkscape:vp_y="0 : 1000 : 0"
       inkscape:vp_x="0 : 30 : 1"
       sodipodi:type="inkscape:persp3d" />
    <symbol
       viewBox="244.5 110 489 219.9"
       id="symbol-university">
      <path
         id="path4460"
         d="M79,43l57,119c0,0,21-96,104-96s124,106,124,106l43-133l82-17L0,17L79,43z" />
      <path
         id="path4462"
         d="M94,176l-21,39"
         stroke-width="20"
         stroke="#000000"
         fill="none" />
      <path
         id="path4464"
         d="M300,19c0,10.5-22.6,19-50.5,19S199,29.5,199,19s22.6-19,50.5-19S300,8.5,300,19z" />
      <path
         id="path4466"
         d="M112,216l-16-38L64,88c0,0-9-8-4-35s16-24,16-24"
         stroke-width="20"
         stroke="#000000"
         ill="none" />
    </symbol>
    <inkscape:perspective
       id="perspective4471"
       inkscape:persp3d-origin="372.04724 : 350.78739 : 1"
       inkscape:vp_z="744.09448 : 526.18109 : 1"
       inkscape:vp_y="0 : 1000 : 0"
       inkscape:vp_x="0 : 526.18109 : 1"
       sodipodi:type="inkscape:persp3d" />
    <inkscape:perspective
       id="perspective4668"
       inkscape:persp3d-origin="6 : 4 : 1"
       inkscape:vp_z="12 : 6 : 1"
       inkscape:vp_y="0 : 1000 : 0"
       inkscape:vp_x="0 : 6 : 1"
       sodipodi:type="inkscape:persp3d" />
    <clipPath
       id="SVGID_2_">
      <use
         height="100%"
         width="100%"
         y="0"
         x="0"
         style="overflow:visible"
         xlink:href="#SVGID_1_"
         overflow="visible"
         id="use9" />
    </clipPath>
    <clipPath
       id="SVGID_2_-8">
      <use
         height="100%"
         width="100%"
         y="0"
         x="0"
         style="overflow:visible"
         xlink:href="#SVGID_1_"
         overflow="visible"
         id="use9-6" />
    </clipPath>
    <clipPath
       id="clipPath4305">
      <use
         height="100%"
         width="100%"
         y="0"
         x="0"
         style="overflow:visible"
         xlink:href="#SVGID_1_"
         overflow="visible"
         id="use4307" />
    </clipPath>
    <clipPath
       id="clipPath4309">
      <use
         height="100%"
         width="100%"
         y="0"
         x="0"
         style="overflow:visible"
         xlink:href="#SVGID_1_"
         overflow="visible"
         id="use4311" />
    </clipPath>
    <clipPath
       id="clipPath4313">
      <use
         height="100%"
         width="100%"
         y="0"
         x="0"
         style="overflow:visible"
         xlink:href="#SVGID_1_"
         overflow="visible"
         id="use4315" />
    </clipPath>
    <clipPath
       id="clipPath4317">
      <use
         height="100%"
         width="100%"
         y="0"
         x="0"
         style="overflow:visible"
         xlink:href="#SVGID_1_"
         overflow="visible"
         id="use4319" />
    </clipPath>
  </defs>
  <g
     id="g1327">
    <path
       d="M 66.275,1.768 C 24.94,1.768 1.704,23.139 1.704,66.804 L 1.704,516.927 C 1.704,557.771 22.599,579.156 63.896,579.156 L 515.92,579.156 C 557.227,579.156 578.149,558.841 578.149,516.927 L 578.149,66.804 C 578.149,24.203 557.227,1.768 514.628,1.768 C 514.624,1.768 66.133,1.625 66.275,1.768 z "
       style="fill:#111;stroke:#eee;stroke-width:3.40799999"
       id="path1329" />
  </g>
  <path
     id="path15"
     d="m 309.094,427.584 -66.456,0 c 1.362,-3.477 2.116,-7.256 2.116,-11.215 l 0,-32.546 -2.429,-29.659 c -4.677,-11.028 -15.604,-18.766 -28.338,-18.766 l -64.775,0 c -12.734,0 -23.661,7.736 -28.338,18.767 l -2.429,29.657 0,32.547 c 0,3.959 0.754,7.738 2.116,11.215 l -66.455,0 0,22.498 0,9 0,77.996 10.5,0 0,-77.996 233.988,0 0,77.996 10.498,0 0,-77.996 0.002,0 0,-31.498 z m -88.63,0 -7.287,0 0,-50.891 7.287,0 0,50.891 z m -77.729,-50.891 7.288,0 0,50.891 -7.288,0 0,-50.891 z"
     clip-path="url(#SVGID_2_)"
     inkscape:connector-curvature="0"
     style="fill:#814747;fill-opacity:1;stroke:none;opacity:0"
     transform="matrix(1.1907645,0,0,1.1907645,-25.706456,-93.062852)" />
  <path
     id="path15-2"
     d="m 309.094,427.584 -66.456,0 c 1.362,-3.477 2.116,-7.256 2.116,-11.215 l 0,-32.546 -2.429,-29.659 c -4.677,-11.028 -15.604,-18.766 -28.338,-18.766 l -64.775,0 c -12.734,0 -23.661,7.736 -28.338,18.767 l -2.429,29.657 0,32.547 c 0,3.959 0.754,7.738 2.116,11.215 l -66.455,0 0,22.498 0,9 0,77.996 10.5,0 0,-77.996 233.988,0 0,77.996 10.498,0 0,-77.996 0.002,0 0,-31.498 z m -88.63,0 -7.287,0 0,-50.891 7.287,0 0,50.891 z m -77.729,-50.891 7.288,0 0,50.891 -7.288,0 0,-50.891 z"
     clip-path="url(#SVGID_2_-8)"
     inkscape:connector-curvature="0"
     style="fill:#ffffff"
     transform="matrix(1.1907645,0,0,1.1907645,701.6686,-65.874017)" />
  <path
     id="path17"
     d="m 181.6,247.014 c 20.794,0 37.65,16.856 37.65,37.65 0,20.794 -16.856,37.65 -37.65,37.65 -20.794,0 -37.65,-16.856 -37.65,-37.65 0,-20.794 16.856,-37.65 37.65,-37.65"
     clip-path="url(#SVGID_2_-8)"
     inkscape:connector-curvature="0"
     style="fill:#ffffff"
     transform="matrix(1.1907645,0,0,1.1907645,701.6686,-65.874017)" />
  <path
     id="path19"
     d="m 478.257,171.736 c -1.972,9.023 -4.293,17.185 -7.315,25.12 -2.577,6.766 -5.519,13.36 -9.762,19.249 -2.109,2.926 -4.426,5.665 -7.594,7.434 -4.241,2.368 -9.112,2.427 -13.216,-1.341 -2.538,-2.33 -4.99,-4.767 -7.375,-7.262 -5.378,-5.626 -11.66,-9.948 -18.374,-13.69 -9.36,-5.216 -18.99,-9.853 -28.846,-13.987 -6.345,-2.662 -12.728,-5.243 -19.172,-7.639 -8.524,-3.168 -17.18,-5.933 -26.1,-7.731 -3.294,-0.664 -4.84,0.137 -6.147,3.337 -1.191,2.919 -2.7,24.474 -1.467,41.372 1.359,16.567 3.963,27.571 4.274,28.826 0.596,2.405 -0.324,7.621 -4.211,8.04 -5.508,0.244 -12.325,-3.479 -15.974,-5.765 -5.532,-3.467 -8.681,-8.528 -9.949,-14.948 -1.143,-5.782 -1.216,-11.633 -1.163,-17.495 0.068,-7.543 0.255,-15.089 -0.461,-22.615 -0.527,-5.557 -1.627,-9.895 -3.296,-15.395 -2.225,-4.931 -4.308,-6.314 -7.152,-7.87 -2.323,-0.901 -17.355,-3.25 -19.727,-4.021 -6.491,-2.109 -15.137,-11.736 -14.189,-33.927 1.053,-21.221 12.426,-30.411 16.218,-32.458 4.633,-2.477 16.778,-2.8 27.029,-3.988 8.663,-1.34 14.444,-2.088 22.488,-3.683 14.882,-2.74 28.603,-5.448 42.12,-9.936 12.519,-4.156 24.734,-9.108 36.704,-14.697 8.73,-4.077 17.238,-8.584 25.448,-13.68 3.052,-1.895 5.086,-3.395 6.722,-6.666 1.538,-3.077 3.135,-5.854 5.984,-8.173 2.559,-2.083 4.403,-3.213 6.604,-3.808 1.727,-0.416 2.87,-0.486 3.954,-0.411 3.997,0.277 7.861,1.108 11.207,3.571 2.974,2.189 4.979,5.175 6.59,8.465 4.219,8.611 6.496,17.836 8.147,27.251 2.592,14.779 3.591,29.696 3.646,44.693 0.033,9.065 -0.396,18.109 -1.336,27.119 -0.896,8.628 -2.256,17.898 -4.309,26.709 m -52.754,24.495 c 0.073,-0.047 0.146,-0.094 0.219,-0.141 -0.268,-1.479 -0.51,-1.545 -0.807,-3.018 -1.073,-5.301 -2.292,-10.576 -3.225,-15.903 -2.36,-13.489 -3.3,-27.109 -3.309,-40.803 -0.007,-9.954 0.407,-19.892 1.651,-29.763 0.812,-6.427 1.874,-12.828 3.061,-19.195 1.117,-6 2.773,-11.87 4.975,-17.563 -0.203,-0.158 -1.597,1.014 -3.397,2.186 -8.579,5.578 -17.744,9.896 -27.369,13.176 -10.627,3.621 -21.306,7.08 -31.946,10.661 -6.411,2.158 -12.767,4.467 -18.751,7.722 -5.708,3.105 -9.997,7.5 -12.226,13.82 -1.808,5.125 -3.029,6.129 -3.448,11.571 -0.528,6.861 0.138,12.128 2.91,18.473 2.104,4.819 5.148,8.938 9.731,11.469 2.802,1.548 5.884,2.622 8.925,3.646 6.216,2.093 12.5,3.974 18.735,6.006 7.063,2.301 14.078,4.741 20.812,7.948 9.371,4.463 18.535,9.31 27.124,15.226 2.131,1.466 4.224,2.987 6.335,4.482 m 10.732,-19.103 c 0.121,0.02 0.242,0.039 0.364,0.059 0.528,-0.895 1.094,-1.769 1.578,-2.688 2.392,-4.545 4.347,-9.281 5.958,-14.175 2.252,-6.841 4.08,-13.79 4.882,-20.971 1.104,-9.868 0.646,-19.678 -1.537,-29.373 -1.552,-6.894 -3.772,-12.997 -8.497,-18.348 -0.165,-0.186 -0.936,-0.877 -2.104,-1.595 -0.44,3.594 -4.45,24.757 -4.126,43.312 -0.324,15.241 2.356,33.653 2.844,39.991 0.096,1.272 0.42,2.526 0.638,3.788"
     clip-path="url(#SVGID_2_-8)"
     inkscape:connector-curvature="0"
     style="fill:#ffffff"
     transform="matrix(1.1087085,0,0,1.1087085,672.68034,16.621312)" />
  <path
     id="path21"
     d="m 508.781,206.53 c 0.074,-0.786 0.4,-1.078 0.798,-1.701 2.321,-3.643 4.756,-7.214 6.975,-10.921 3.783,-6.323 7.316,-12.829 9.793,-19.791 2.304,-6.476 4.311,-12.945 5.67,-19.688 1.196,-5.932 2.68,-12.269 3.134,-18.314 0.717,-9.554 0.125,-19.653 -1.194,-29.15 -1.175,-8.467 -4.068,-16.195 -7.561,-24.006 -2.012,-4.503 -4.476,-8.734 -7.62,-12.523 -1.577,-1.9 -3.151,-3.803 -4.719,-5.711 -0.178,-0.217 -0.38,-0.599 -0.275,-1.079 0.469,-1.172 1.879,-0.41 1.928,-0.479 0.677,0.32 2.257,1.113 2.708,1.438 2.031,1.386 3.854,2.7 5.705,4.184 5.097,4.087 9.772,8.609 13.573,14.019 6.014,8.564 9.967,18.038 12.029,28.355 0.956,4.784 1.348,9.997 1.514,14.679 0.002,3.847 -0.338,8.639 -0.974,12.209 -0.936,5.252 -1.814,9.04 -3.098,14.216 -4.731,15.889 -12.026,29.955 -22.771,42.214 -3.282,3.746 -6.859,7.223 -10.334,10.79 -0.64,0.657 -1.73,1.606 -2.453,2.179 -1.216,1.041 -2.899,0.754 -2.828,-0.92"
     clip-path="url(#SVGID_2_-8)"
     inkscape:connector-curvature="0"
     style="fill:#ffffff"
     transform="matrix(1.1087085,0,0,1.1087085,672.68034,16.621312)" />
  <path
     id="path23"
     d="m 490.229,194.059 c 0.12,-0.661 0.293,-0.979 0.591,-1.441 1.889,-2.921 3.85,-5.794 5.68,-8.752 2.759,-4.46 4.889,-9.243 6.575,-14.224 2.633,-7.778 4.781,-15.7 6.365,-23.771 1.557,-7.923 1.687,-15.934 1.156,-23.966 -0.43,-6.509 -1.095,-12.999 -3.032,-19.245 -2.07,-6.677 -5.071,-12.913 -9.219,-18.52 -0.866,-1.172 -1.979,-2.15 -2.944,-3.25 -0.333,-0.379 -0.735,-0.94 -0.632,-1.58 0.625,-1.545 1.719,-1.172 2.24,-0.959 0.434,0.151 1.859,1.205 2.223,1.46 1.566,1.094 3.162,2.16 4.623,3.391 4.246,3.579 8.208,7.453 11.391,12.091 4.34,6.326 7.227,13.29 8.697,20.863 1.559,8.017 1.46,16.046 0.113,24.085 -2.188,13.053 -6.859,25.066 -14.354,35.886 -4.224,6.095 -9.1,11.617 -14.435,16.713 -0.563,0.538 -1.428,1.286 -2.412,1.857 -1.443,0.939 -2.626,0.267 -2.626,-0.638"
     clip-path="url(#SVGID_2_-8)"
     inkscape:connector-curvature="0"
     style="fill:#ffffff"
     transform="matrix(1.1087085,0,0,1.1087085,672.68034,16.621312)" />
  <g
     id="g7"
     inkscape:version="0.46"
     sodipodi:docname="waste_bin.svg"
     sodipodi:version="0.32"
     inkscape:output_extension="org.inkscape.output.svg.inkscape"
     style="fill:#ffffff;fill-opacity:1">
    <g
       id="g9"
       style="fill:#ffffff;fill-opacity:1">
      <circle
         style="fill:#ffffff;fill-opacity:1"
         cx="290.00299"
         cy="99.780998"
         r="60.356998"
         id="circle11" />
      <path
         style="fill:#ffffff;fill-opacity:1"
         inkscape:connector-curvature="0"
         d="m 177.311,289.357 48.793,-49.118 0,46.071 63.8,0 0.061,0 63.359,0 0,-46.321 50.073,50.177 c 20.161,21.234 50.846,-7.3 29.824,-28.319 l -81.609,-81.738 c -6.744,-6.634 -14.421,-10.646 -25.802,-10.646 l -35.846,0 -0.061,0 -36.539,0 c -11.381,0 -18.554,4.14 -25.106,10.646 l -80.79,80.944 c -22.078,22.084 7.8,50.347 29.843,28.304 z"
         id="path13" />
      <path
         style="fill:#ffffff;fill-opacity:1"
         inkscape:connector-curvature="0"
         d="m 334.34,459.086 57.048,-59.316 c 12.244,-12.494 15.629,-35.572 2.505,-48.695 -0.046,-0.045 -40.832,-40.873 -40.832,-40.873 l -47.948,47.953 35.204,35.137 -36.072,36.07 c -21.291,21.292 8.079,51.742 30.095,29.724 z"
         id="path15-3" />
      <path
         style="fill:#ffffff;fill-opacity:1"
         inkscape:connector-curvature="0"
         d="m 226.114,310.201 c 0,0 -40.785,40.828 -40.83,40.873 -13.126,13.123 -9.74,36.201 2.502,48.695 l 57.049,59.316 c 22.016,22.018 51.385,-8.432 30.096,-29.725 l -36.071,-36.07 35.204,-35.137 -47.95,-47.952 z"
         id="path17-9" />
      <path
         style="fill:#ffffff;fill-opacity:1"
         inkscape:connector-curvature="0"
         d="m 473,223.575 0,236.001 c 0,22.607 -18.393,41 -41,41 l -284,0 c -22.607,0 -41,-18.393 -41,-41 l 0,-236.001 -40,0 0,236.001 c 0,44.664 36.336,81 81,81 l 284,0 c 44.664,0 81,-36.336 81,-81 l 0,-236.001 -40,0 z"
         id="path19-3" />
    </g>
  </g>
</svg>

<svg width="580" height="580" viewBox="0 0 580 580" fill="none" xmlns="http://www.w3.org/2000/svg">
<g clip-path="url(#clip0)">
<path d="M66.275 1.76799C24.94 1.76799 1.70398 23.139 1.70398 66.804V516.927C1.70398 557.771 22.599 579.156 63.896 579.156H515.92C557.227 579.156 578.149 558.841 578.149 516.927V66.804C578.149 24.203 557.227 1.76799 514.628 1.76799C514.624 1.76799 66.133 1.62499 66.275 1.76799Z" fill="#111111" stroke="#EEEEEE" stroke-width="3.408"/>
<path d="M290.003 160.138C323.337 160.138 350.36 133.115 350.36 99.781C350.36 66.4468 323.337 39.424 290.003 39.424C256.669 39.424 229.646 66.4468 229.646 99.781C229.646 133.115 256.669 160.138 290.003 160.138Z" fill="white"/>
<path d="M177.311 289.357L226.104 240.239V286.31H289.904H289.965H353.324V239.989L403.397 290.166C423.558 311.4 454.243 282.866 433.221 261.847L351.612 180.109C344.868 173.475 337.191 169.463 325.81 169.463H289.964H289.903H253.364C241.983 169.463 234.81 173.603 228.258 180.109L147.468 261.053C125.39 283.137 155.268 311.4 177.311 289.357V289.357Z" fill="white"/>
<path d="M334.34 459.086L391.388 399.77C403.632 387.276 407.017 364.198 393.893 351.075C393.847 351.03 353.061 310.202 353.061 310.202L305.113 358.155L340.317 393.292L304.245 429.362C282.954 450.654 312.324 481.104 334.34 459.086V459.086Z" fill="white"/>
<path d="M226.114 310.201C226.114 310.201 185.329 351.029 185.284 351.074C172.158 364.197 175.544 387.275 187.786 399.769L244.835 459.085C266.851 481.103 296.22 450.653 274.931 429.36L238.86 393.29L274.064 358.153L226.114 310.201V310.201Z" fill="white"/>
<path d="M473 223.575V459.576C473 482.183 454.607 500.576 432 500.576H148C125.393 500.576 107 482.183 107 459.576V223.575H67V459.576C67 504.24 103.336 540.576 148 540.576H432C476.664 540.576 513 504.24 513 459.576V223.575H473V223.575Z" fill="white"/>
</g>
<defs>
<clipPath id="clip0">
<path d="M0 0H580V580H0V0Z" fill="white"/>
</clipPath>
</defs>
</svg>
